X: 1
T: IRISH SHOW BOY -- JIG
B: Ryan's Mammoth Collection of Fiddle Tunes
R: jig
M: 6/8
L: 1/8
Z: Contributed 20010707130926 by John Chambers jmchambers:rcn.net
K: D
(uf/g/) \
| d2A (FE).D | E>FE c>Bc | dfd AFD | (ED)D D2(f/e/) \
| d2A (FE)D | E>FE c>Bc | (df).d AFD | (ED)D D2 :|
|: uA \
| dcd Bcd | efd cBA | dcd efg | fdd d2f \
| gfg Bcd | efd cBA | dAG gfe | fdd d2 :|
